icons/1_Primary/AVG.svg

<svg xmlns="http://www.w3.org/2000/svg" width="1024" height="1024" fill="none">
   <g clip-path="url(#a)">
      <path fill="#71A372" d="M512 1024c282.77 0 512-229.23 512-512S794.77 0 512 0 0 229.23 0 512s229.23 512 512 512Z"/>
      <path fill="#fff" d="M284.76 480.13V267.41A11.392 11.392 0 0 1 296.11 256h6.28a11.413 11.413 0 0 1 11.29 10.55l5.06 59.45a4.674 4.674 0 0 0 1.227 3.068 4.674 4.674 0 0 0 6.147.666A4.678 4.678 0 0 0 327.97 327l5.25-60.41A11.4 11.4 0 0 1 344.51 256h14.67a11.343 11.343 0 0 1 11.22 10.07l5.53 60a4.79 4.79 0 0 0 9.4 1l5.56-60.54A11.381 11.381 0 0 1 402.21 256h14.65a11.397 11.397 0 0 1 11.28 10.61l5.44 59.39a4.74 4.74 0 0 0 4.78 4.52 4.665 4.665 0 0 0 4.63-3.48l5.61-60.86A11.322 11.322 0 0 1 459.87 256h14.65a11.469 11.469 0 0 1 11.34 10.49l1.61 18.64h-5.93a17.352 17.352 0 0 0-12.364 4.992A17.362 17.362 0 0 0 464 302.41l.07.74 46.34 188.38H296.29A11.438 11.438 0 0 1 285 480.32l-.24-.19Zm403.87-152.26 67.42-4.9a11.313 11.313 0 0 0 10.49-11v-6.26a11.259 11.259 0 0 0-11.42-11H487.7a11.26 11.26 0 0 0-11.42 10.73l47.31 190.37v.06l4.94 19.88L735 464.65l.74-.14a17.43 17.43 0 0 1 17.2 17.59v9.71l3.14-.29a11.209 11.209 0 0 0 10.49-11v-14.34a11.218 11.218 0 0 0-10.21-11l-68.71-5.47a4.727 4.727 0 0 1-3.569-5.097 4.734 4.734 0 0 1 4.569-4.223l67.35-5.31a11.24 11.24 0 0 0 10.54-11v-14.4a11.292 11.292 0 0 0-10.49-11l-68.42-5.41a4.76 4.76 0 0 1 1-9.37l67.8-5.37a11.158 11.158 0 0 0 10.14-11v-14.26a11.181 11.181 0 0 0-10.59-11l-68.29-5.16a4.668 4.668 0 0 1-2.123-7.981 4.673 4.673 0 0 1 3.063-1.239m44.24 148.91-203.25 51.42L578 726.74a14.198 14.198 0 0 1-3 11.71c-3.2 3.76-8.54 6-14.35 6h-12.46l1 12.95c.43 5.89 5.18 10.56 10.8 10.56h14.17A11.1 11.1 0 0 0 585 757.7l5.4-69.05A4.638 4.638 0 0 1 595 685a4.707 4.707 0 0 1 4.69 4.62l5.3 67.65c.41 6 5.19 10.69 10.83 10.69H630c5.63 0 10.38-4.63 10.86-10.56l5.34-68.78a4.657 4.657 0 0 1 4.56-3.61 4.772 4.772 0 0 1 4.71 4.62l5.32 68.2a11.006 11.006 0 0 0 3.405 7.16 11.003 11.003 0 0 0 7.335 3.01h14.18c5.64 0 10.44-4.67 10.83-10.69l5.11-68.66a4.563 4.563 0 0 1 4.45-3.65 4.685 4.685 0 0 1 3.25 1.37 4.683 4.683 0 0 1 1.37 3.25l4.85 67.73c.46 5.93 5.23 10.61 10.86 10.61h6.07c6 0 10.9-5.2 10.9-11.52V488.23a11.2 11.2 0 0 0-10.55-11.43M567 731a7.884 7.884 0 0 0 1.67-6.61l-50.2-199.99h-.06l-5.18-20.57H294.44a17.75 17.75 0 0 1-17.38-14.1h-8.11a11.272 11.272 0 0 0-11.52 11v6.16a11.26 11.26 0 0 0 10.3 11l69.42 5.56a4.597 4.597 0 0 1 3.65 4.55 4.772 4.772 0 0 1-4.62 4.76L268 538a11.32 11.32 0 0 0-10.56 11v14.32a11.24 11.24 0 0 0 10.3 11l69.47 5.43a4.732 4.732 0 0 1 3.61 4.6 4.802 4.802 0 0 1-4.59 4.77l-68.12 5.32a11.35 11.35 0 0 0-10.63 11v14.34a11.282 11.282 0 0 0 10.56 11l68.28 5.33.91.1a4.777 4.777 0 0 1 2.766 1.892 4.775 4.775 0 0 1-.664 6.24 4.773 4.773 0 0 1-3.102 1.268L267.6 651a11.206 11.206 0 0 0-10.17 11v14.32a11.31 11.31 0 0 0 10.69 11l69 5.18a4.581 4.581 0 0 1 3.68 4.5 4.76 4.76 0 0 1-4.62 4.7L268 706.54a11.383 11.383 0 0 0-10.56 11.05v6.17a11.303 11.303 0 0 0 11.52 11h288.11c4.05 0 7.87-1.42 9.93-3.82"/>
   </g>
   <defs>
      <clipPath id="a">
         <path fill="#fff" d="M0 0h1024v1024H0z"/>
      </clipPath>
   </defs>
</svg>

<svg width="1024" height="1024" viewBox="0 0 1024 1024" fill="none" xmlns="http://www.w3.org/2000/svg">
<g clip-path="url(#clip0_2_1545)">
<path d="M512 1024C794.77 1024 1024 794.77 1024 512C1024 229.23 794.77 0 512 0C229.23 0 0 229.23 0 512C0 794.77 229.23 1024 512 1024Z" fill="#71A372"/>
<path d="M284.76 480.13V267.41C284.755 264.393 285.947 261.496 288.075 259.357C290.203 257.218 293.093 256.011 296.11 256H302.39C305.252 256.022 308.001 257.119 310.093 259.073C312.184 261.027 313.464 263.696 313.68 266.55L318.74 326C318.762 327.138 319.198 328.229 319.967 329.068C320.735 329.908 321.783 330.439 322.915 330.561C324.046 330.684 325.184 330.39 326.114 329.734C327.045 329.079 327.704 328.107 327.97 327L333.22 266.59C333.424 263.728 334.699 261.048 336.792 259.085C338.885 257.122 341.641 256.02 344.51 256H359.18C361.959 256.012 364.637 257.044 366.706 258.9C368.774 260.757 370.089 263.308 370.4 266.07L375.93 326.07C375.995 327.204 376.46 328.278 377.243 329.1C378.026 329.923 379.076 330.44 380.205 330.56C381.335 330.68 382.47 330.395 383.409 329.756C384.347 329.117 385.028 328.165 385.33 327.07L390.89 266.53C391.104 263.672 392.389 261 394.487 259.048C396.586 257.095 399.344 256.007 402.21 256H416.86C419.731 256.023 422.487 257.129 424.578 259.096C426.669 261.063 427.941 263.746 428.14 266.61L433.58 326C433.637 327.226 434.167 328.381 435.058 329.224C435.95 330.067 437.133 330.532 438.36 330.52C439.411 330.547 440.441 330.218 441.281 329.587C442.122 328.955 442.724 328.057 442.99 327.04L448.6 266.18C448.883 263.388 450.192 260.801 452.274 258.92C454.357 257.039 457.064 255.998 459.87 256H474.52C477.377 256.022 480.123 257.109 482.221 259.05C484.318 260.99 485.616 263.643 485.86 266.49L487.47 285.13H481.54C479.252 285.106 476.982 285.535 474.86 286.392C472.738 287.249 470.806 288.516 469.176 290.122C467.546 291.728 466.25 293.641 465.361 295.749C464.473 297.858 464.01 300.122 464 302.41L464.07 303.15L510.41 491.53H296.29C293.321 491.492 290.484 490.301 288.377 488.209C286.27 486.117 285.059 483.288 285 480.32L284.76 480.13ZM688.63 327.87L756.05 322.97C758.852 322.767 761.479 321.528 763.418 319.495C765.357 317.461 766.47 314.779 766.54 311.97V305.71C766.472 302.741 765.233 299.919 763.094 297.859C760.956 295.799 758.089 294.667 755.12 294.71H487.7C484.776 294.665 481.949 295.76 479.817 297.763C477.686 299.765 476.417 302.519 476.28 305.44L523.59 495.81V495.87L528.53 515.75L735 464.65L735.74 464.51C740.351 464.571 744.749 466.456 747.973 469.753C751.197 473.049 752.983 477.489 752.94 482.1V491.81L756.08 491.52C758.891 491.339 761.53 490.108 763.474 488.069C765.418 486.031 766.523 483.336 766.57 480.52V466.18C766.527 463.409 765.46 460.753 763.575 458.722C761.69 456.691 759.12 455.429 756.36 455.18L687.65 449.71C686.539 449.436 685.566 448.768 684.91 447.831C684.254 446.894 683.959 445.751 684.081 444.613C684.204 443.476 684.734 442.421 685.574 441.645C686.414 440.868 687.507 440.423 688.65 440.39L756 435.08C758.817 434.905 761.465 433.676 763.418 431.638C765.371 429.6 766.485 426.902 766.54 424.08V409.68C766.475 406.87 765.363 404.185 763.423 402.15C761.483 400.116 758.854 398.878 756.05 398.68L687.63 393.27C686.52 392.988 685.549 392.315 684.895 391.375C684.242 390.435 683.948 389.29 684.07 388.152C684.192 387.013 684.719 385.956 685.557 385.175C686.395 384.394 687.486 383.942 688.63 383.9L756.43 378.53C759.182 378.278 761.743 377.013 763.616 374.981C765.489 372.949 766.542 370.294 766.57 367.53V353.27C766.528 350.436 765.411 347.723 763.445 345.681C761.479 343.638 758.811 342.419 755.98 342.27L687.69 337.11C686.581 336.855 685.603 336.204 684.94 335.278C684.277 334.353 683.975 333.217 684.091 332.085C684.206 330.953 684.731 329.902 685.567 329.129C686.403 328.357 687.492 327.916 688.63 327.89M732.87 476.8L529.62 528.22L578 726.74C578.392 728.792 578.327 730.906 577.808 732.93C577.29 734.954 576.331 736.839 575 738.45C571.8 742.21 566.46 744.45 560.65 744.45H548.19L549.19 757.4C549.62 763.29 554.37 767.96 559.99 767.96H574.16C576.919 767.903 579.558 766.821 581.562 764.924C583.566 763.027 584.792 760.452 585 757.7L590.4 688.65C590.628 687.604 591.211 686.67 592.049 686.005C592.887 685.34 593.93 684.985 595 685C596.23 685.005 597.41 685.491 598.286 686.355C599.163 687.218 599.666 688.39 599.69 689.62L604.99 757.27C605.4 763.27 610.18 767.96 615.82 767.96H630C635.63 767.96 640.38 763.33 640.86 757.4L646.2 688.62C646.438 687.59 647.019 686.672 647.848 686.016C648.676 685.36 649.703 685.006 650.76 685.01C651.989 685.025 653.165 685.514 654.042 686.374C654.92 687.235 655.431 688.401 655.47 689.63L660.79 757.83C660.996 760.557 662.21 763.109 664.195 764.99C666.181 766.87 668.796 767.943 671.53 768H685.71C691.35 768 696.15 763.33 696.54 757.31L701.65 688.65C701.859 687.623 702.416 686.699 703.226 686.034C704.037 685.369 705.052 685.004 706.1 685C707.32 685.016 708.486 685.507 709.35 686.37C710.213 687.233 710.704 688.4 710.72 689.62L715.57 757.35C716.03 763.28 720.8 767.96 726.43 767.96H732.5C738.5 767.96 743.4 762.76 743.4 756.44V488.23C743.464 485.329 742.401 482.517 740.433 480.385C738.465 478.253 735.746 476.968 732.85 476.8M567 731C567.755 730.094 568.298 729.029 568.587 727.885C568.876 726.741 568.904 725.547 568.67 724.39L518.47 524.4H518.41L513.23 503.83H294.44C290.365 503.832 286.413 502.432 283.248 499.864C280.083 497.297 277.898 493.718 277.06 489.73H268.95C265.964 489.663 263.074 490.784 260.914 492.846C258.754 494.909 257.501 497.744 257.43 500.73V506.89C257.484 509.672 258.567 512.336 260.469 514.367C262.371 516.398 264.957 517.653 267.73 517.89L337.15 523.45C338.191 523.67 339.123 524.243 339.788 525.073C340.454 525.902 340.811 526.937 340.8 528C340.798 529.238 340.315 530.426 339.453 531.315C338.591 532.203 337.417 532.721 336.18 532.76L268 538C265.186 538.188 262.543 539.421 260.59 541.455C258.637 543.49 257.513 546.18 257.44 549V563.32C257.49 566.104 258.571 568.77 260.474 570.802C262.376 572.834 264.966 574.088 267.74 574.32L337.21 579.75C338.24 580.001 339.156 580.591 339.811 581.425C340.466 582.26 340.821 583.29 340.82 584.35C340.813 585.582 340.333 586.765 339.479 587.653C338.624 588.541 337.461 589.066 336.23 589.12L268.11 594.44C265.286 594.618 262.63 595.845 260.663 597.88C258.697 599.915 257.562 602.611 257.48 605.44V619.78C257.544 622.602 258.665 625.298 260.62 627.335C262.575 629.371 265.223 630.601 268.04 630.78L336.32 636.11L337.23 636.21C338.35 636.486 339.333 637.158 339.996 638.102C340.658 639.047 340.956 640.199 340.834 641.347C340.712 642.494 340.178 643.558 339.332 644.342C338.485 645.126 337.383 645.576 336.23 645.61L267.6 651C264.847 651.256 262.285 652.521 260.408 654.552C258.53 656.582 257.47 659.235 257.43 662V676.32C257.504 679.161 258.644 681.871 260.625 683.909C262.606 685.947 265.282 687.165 268.12 687.32L337.12 692.5C338.159 692.708 339.094 693.271 339.765 694.091C340.436 694.912 340.802 695.94 340.8 697C340.785 698.228 340.296 699.403 339.435 700.279C338.574 701.155 337.408 701.664 336.18 701.7L268 706.54C265.182 706.743 262.541 707.986 260.589 710.028C258.637 712.071 257.515 714.766 257.44 717.59V723.76C257.519 726.743 258.774 729.574 260.932 731.635C263.091 733.696 265.976 734.819 268.96 734.76H557.07C561.12 734.76 564.94 733.34 567 730.94" fill="white"/>
</g>
<defs>
<clipPath id="clip0_2_1545">
<rect width="1024" height="1024" fill="white"/>
</clipPath>
</defs>
</svg>
